X:173
T:score252
L:1/16
Q:1/4=96
M:3/4
I:linebreak $
K:D
 (f3g/f/) b4 d'4 | (c'2>^e2) f8 | (=e3f/e/) e'4 e4 | (d2>e2) f8 |$ g6 (fe dceg) | %5
 f6 (ed) (cB)(^ab) | g2fe (d4!f! ^d4) | (e2>f2) (g2>!p!a2) b2 z2 |$ g2fe (d4!f! ^d4) | %9
 (e2>f2) (g2>!p!a2) b2 z2 | g2fe d4 Tc4 | B4- B2 z2 z4 |] %12
